assets/images/orders-list.svg

<svg fill="none" height="800" viewBox="0 0 24 24" width="800" xmlns="http://www.w3.org/2000/svg"><g fill="#1c274c"><path clip-rule="evenodd" d="m2 5.75c0-.41421.33579-.75.75-.75h18c.4142 0 .75.33579.75.75s-.3358.75-.75.75h-18c-.41421 0-.75-.33579-.75-.75zm0 4c0-.41421.33579-.75.75-.75h18c.4142 0 .75.33579.75.75 0 .4142-.3358.75-.75.75h-18c-.41421 0-.75-.3358-.75-.75zm0 4c0-.4142.33579-.75.75-.75h7c.4142 0 .75.3358.75.75s-.3358.75-.75.75h-7c-.41421 0-.75-.3358-.75-.75zm0 4c0-.4142.33579-.75.75-.75h7c.4142 0 .75.3358.75.75s-.3358.75-.75.75h-7c-.41421 0-.75-.3358-.75-.75z" fill-rule="evenodd" opacity=".5"/><path d="m20.2113 12.6587c.3266.2547.3848.726.1301 1.0526l-3.9 5c-.1392.1785-.3515.2845-.5778.2886s-.4423-.0942-.5879-.2675l-2.1-2.5c-.2664-.3171-.2252-.7902.0919-1.0566.3172-.2665.7903-.2253 1.0567.0918l1.5041 1.7907 3.3302-4.2695c.2548-.3266.7261-.3849 1.0527-.1301z"/></g></svg>

<?xml version="1.0" encoding="utf-8"?><!-- Uploaded to: SVG Repo, www.svgrepo.com, Generator: SVG Repo Mixer Tools -->
<svg width="800px" height="800px" viewBox="0 0 24 24" fill="none" xmlns="http://www.w3.org/2000/svg">
<path opacity="0.5" fill-rule="evenodd" clip-rule="evenodd" d="M2 5.75C2 5.33579 2.33579 5 2.75 5H20.75C21.1642 5 21.5 5.33579 21.5 5.75C21.5 6.16421 21.1642 6.5 20.75 6.5H2.75C2.33579 6.5 2 6.16421 2 5.75ZM2 9.75C2 9.33579 2.33579 9 2.75 9H20.75C21.1642 9 21.5 9.33579 21.5 9.75C21.5 10.1642 21.1642 10.5 20.75 10.5H2.75C2.33579 10.5 2 10.1642 2 9.75ZM2 13.75C2 13.3358 2.33579 13 2.75 13H9.75C10.1642 13 10.5 13.3358 10.5 13.75C10.5 14.1642 10.1642 14.5 9.75 14.5H2.75C2.33579 14.5 2 14.1642 2 13.75ZM2 17.75C2 17.3358 2.33579 17 2.75 17H9.75C10.1642 17 10.5 17.3358 10.5 17.75C10.5 18.1642 10.1642 18.5 9.75 18.5H2.75C2.33579 18.5 2 18.1642 2 17.75Z" fill="#1C274C"/>
<path d="M20.2113 12.6587C20.5379 12.9134 20.5961 13.3847 20.3414 13.7113L16.4414 18.7113C16.3022 18.8898 16.0899 18.9958 15.8636 18.9999C15.6373 19.004 15.4213 18.9057 15.2757 18.7324L13.1757 16.2324C12.9093 15.9153 12.9505 15.4422 13.2676 15.1758C13.5848 14.9093 14.0579 14.9505 14.3243 15.2676L15.8284 17.0583L19.1586 12.7888C19.4134 12.4622 19.8847 12.4039 20.2113 12.6587Z" fill="#1C274C"/>
</svg>
